public/images/icons/selenium-original.svg

<svg width="128" height="128" viewBox="0 0 128 128" fill="none" xmlns="http://www.w3.org/2000/svg">
<path d="M83.0998 80.5C78.3998 80.4 74.2998 83.9 73.7998 88.6C73.7998 88.8 73.8998 88.9 74.0998 88.9H92.0998C92.2998 88.9 92.3998 88.8 92.3998 88.6C91.9998 83.8 87.8998 80.2 83.0998 80.5Z" fill="#43B02A"/>
<path d="M121.7 19.9L83.2998 62.9C82.8998 63.4 82.0998 63.4 81.5998 63L81.4998 62.9L62.0998 42.8C61.6998 42.4 61.6998 41.8 61.9998 41.3L68.4998 33C68.8998 32.5 69.5998 32.3 70.0998 32.7C70.1998 32.8 70.2998 32.8 70.2998 32.9L81.2998 45C81.6998 45.5 82.4998 45.5 82.9998 45.1L83.0998 45L113.8 3.30002C114.1 2.90002 114 2.40002 113.6 2.10002C113.5 2.00002 113.3 2.00002 113.1 1.90002H5.6998C5.1998 2.00002 4.7998 2.40002 4.7998 2.90002V125.1C4.7998 125.6 5.1998 126 5.6998 126H122.3C122.8 126 123.2 125.6 123.2 125.1V20.5C123.2 20 122.8 19.7 122.4 19.7C122.1 19.6 121.9 19.7 121.7 19.9ZM37.8998 112.4C30.1998 112.7 22.6998 110.1 16.9998 105C16.5998 104.6 16.4998 104 16.8998 103.5L21.3998 97.1C21.7998 96.6 22.4998 96.5 22.9998 96.8L23.0998 96.9C27.2998 100.8 32.6998 102.9 38.3998 102.9C44.3998 102.9 47.2998 100.1 47.2998 97.2C47.2998 88.1 17.7998 94.4 17.7998 75.1C17.7998 66.6 25.1998 59.5 37.1998 59.5C44.0998 59.3 50.8998 61.6 56.2998 66C56.6998 66.4 56.7998 67.1 56.3998 67.5L51.6998 73.7C51.2998 74.2 50.5998 74.3 50.0998 73.9C46.0998 70.7 41.1998 69 36.0998 69.1C31.3998 69.1 28.7998 71.2 28.7998 74.2C28.7998 82.3 58.1998 76.9 58.1998 96C58.2998 105.3 51.5998 112.4 37.8998 112.4ZM102.2 94.6C102.2 95.2 101.7 95.6 101.2 95.6H74.2998C74.0998 95.6 73.9998 95.7 73.9998 95.9C74.8998 101.1 79.5998 104.7 84.8998 104.4C88.2998 104.3 91.4998 103.3 94.1998 101.3C94.5998 101 95.2998 101 95.5998 101.5L95.6998 101.6L98.9998 106.4C99.2998 106.8 99.1998 107.4 98.7998 107.8C94.4998 111 89.1998 112.6 83.8998 112.4C72.2998 112.4 63.5998 104.6 63.5998 92.4C63.2998 81.7 71.6998 72.8 82.3998 72.5H83.2998C94.5998 72.5 102.4 81 102.4 93.4L102.2 94.6Z" fill="#43B02A"/>
</svg>

<svg xmlns="http://www.w3.org/2000/svg" viewBox="0 0 128 128"><path fill="#CF0A2C" d="M83.1 80.5c-4.7-.1-8.8 3.4-9.3 8.1 0 .2.1.3.3.3h18c.2 0 .3-.1.3-.3-.4-4.8-4.5-8.4-9.3-8.1z"/><path fill="#CF0A2C" d="M121.7 19.9l-38.4 43c-.4.5-1.2.5-1.7.1l-.1-.1-19.4-20.1c-.4-.4-.4-1-.1-1.5l6.5-8.3c.4-.5 1.1-.7 1.6-.3.1.1.2.1.2.2l11 12.1c.4.5 1.2.5 1.7.1l.1-.1 30.7-41.7c.3-.4.2-.9-.2-1.2-.1-.1-.3-.1-.5-.2H5.7c-.5.1-.9.5-.9 1v122.2c0 .5.4.9.9.9h116.6c.5 0 .9-.4.9-.9V20.5c0-.5-.4-.8-.8-.8-.3-.1-.5 0-.7.2zm-83.8 92.5c-7.7.3-15.2-2.3-20.9-7.4-.4-.4-.5-1-.1-1.5l4.5-6.4c.4-.5 1.1-.6 1.6-.3l.1.1c4.2 3.9 9.6 6 15.3 6 6 0 8.9-2.8 8.9-5.7 0-9.1-29.5-2.8-29.5-22.1 0-8.5 7.4-15.6 19.4-15.6 6.9-.2 13.7 2.1 19.1 6.5.4.4.5 1.1.1 1.5l-4.7 6.2c-.4.5-1.1.6-1.6.2-4-3.2-8.9-4.9-14-4.8-4.7 0-7.3 2.1-7.3 5.1 0 8.1 29.4 2.7 29.4 21.8.1 9.3-6.6 16.4-20.3 16.4zm64.3-17.8c0 .6-.5 1-1 1H74.3c-.2 0-.3.1-.3.3.9 5.2 5.6 8.8 10.9 8.5 3.4-.1 6.6-1.1 9.3-3.1.4-.3 1.1-.3 1.4.2l.1.1 3.3 4.8c.3.4.2 1-.2 1.4-4.3 3.2-9.6 4.8-14.9 4.6-11.6 0-20.3-7.8-20.3-20-.3-10.7 8.1-19.6 18.8-19.9h.9c11.3 0 19.1 8.5 19.1 20.9l-.2 1.2z"/></svg>
